X:493
M:C|
L:1/8
K:D
|:g|fdad feeg|fdad f2eg|1 fdad ecdF|E/E/E FA B2A:|2
aefd ecdF|EFGA BdAd||

